src/icons/vault.svg

<?xml version="1.0" encoding="UTF-8"?>
<svg xmlns="http://www.w3.org/2000/svg" xmlns:xlink="http://www.w3.org/1999/xlink" width="32" height="32" viewBox="0 0 32 32" version="1.1">
<g id="surface1">
<path style=" stroke:none;fill-rule:nonzero;fill:rgb(0%,0%,0%);fill-opacity:1;" d="M 0 0 L 15.941406 32 L 32 0 Z M 17.839844 6.398438 L 19.695312 6.398438 L 19.695312 8.257812 L 17.839844 8.257812 Z M 14.144531 13.867188 L 12.265625 13.867188 L 12.265625 11.996094 L 14.121094 11.996094 Z M 14.144531 11.082031 L 12.265625 11.082031 L 12.265625 9.210938 L 14.121094 9.210938 Z M 14.144531 8.296875 L 12.265625 8.296875 L 12.265625 6.425781 L 14.121094 6.425781 Z M 16.929688 16.644531 L 15.070312 16.644531 L 15.070312 14.773438 L 16.929688 14.773438 Z M 16.929688 13.859375 L 15.070312 13.859375 L 15.070312 11.996094 L 16.929688 11.996094 Z M 16.929688 11.078125 L 15.070312 11.078125 L 15.070312 9.210938 L 16.929688 9.210938 Z M 16.929688 8.292969 L 15.070312 8.292969 L 15.070312 6.425781 L 16.929688 6.425781 Z M 17.839844 9.222656 L 19.695312 9.222656 L 19.695312 11.078125 L 17.839844 11.078125 Z M 17.839844 13.859375 L 17.839844 11.996094 L 19.734375 11.996094 L 19.734375 13.867188 Z M 17.839844 13.859375 "/>
</g>
</svg>

<svg role="img" viewBox="0 0 32 32" xmlns="http://www.w3.org/2000/svg"><path d="m0 0 15.941 32L32 0Zm17.84 6.398h1.855v1.86H17.84Zm-3.695 7.47h-1.88v-1.872h1.856Zm0-2.786h-1.88V9.211h1.856Zm0-2.785h-1.88V6.426h1.856Zm2.785 8.348h-1.86v-1.872h1.86Zm0-2.786h-1.86v-1.863h1.86Zm0-2.78h-1.86V9.21h1.86Zm0-2.786h-1.86V6.426h1.86Zm.91.93h1.855v1.855H17.84Zm0 4.636v-1.863h1.894v1.871Zm0 0" style="stroke:none;fill-rule:nonzero;fill:rgb(0%,0%,0%);fill-opacity:1"/></svg>
